X:1
T:Mass in C - Galuppi
T:James Gibb editions
T:#
%%score [ 1 2 3 4 ]
L:1/8
Q:1/4=120
M:2/2
K:C
V:1 treble nm="Soprano" snm="Soprano"
V:2 treble nm="Alto" snm="Alto"
V:3 treble-8 nm="Tenor" snm="Tenor"
V:4 bass nm="Bass" snm="Bass"
V:1
 z8 | z8 |"^Mass in C - Kyrie" z4 G3 (A | B2) (d4 c2- | c2 B4 A2 | G4 F4) | G4 A4 | %7
w: ||Ky- ri­|* e e­ *|||le- i-|
 G3 A B2"^Baldassare Galuppi\n(1706-1795)" B2 |[M:2/2] c4 z4 | z8 | G8- | G2 G2 A4 | A8 | G8- | %14
w: son, e- le­ i-|son,||Ky­|* ri- e|e-|le­|
 G6 G2 | G8 || z4 (c4- | c2 B2) A4- | A4 z4 | z4 z2 c2 | A4 G4 | G4 E4 | F2 E2 F2 G2 | %23
w: * i-|son.|Chri­|* * ste||e-|le- i-|son, Chri-|ste e- le- i-|
 E2 c2 A2 G2 | A2 B2 c4 | z8 | z8 | (G8 | F4) E2 G2 | A4 G4 | G6 G2 | G8 || (d4 B2) d2 | %33
w: son, Chri- ste e-|le- i- son,|||Chri­|* ste, Chri-|ste e-|le- i-|son.|Ky­ * ri-|
 (e3 d cB c2) | (d3 c BA B2) | c6 e2 | d4 z4 | z2 (c2 A2) c2 | (d3 c BA) B2 | c6 c2 | B2 B2 A2 G2 | %41
w: e * * * *|e­ * * * *|le- i-|son,|Ky­ * ri-|e * * * e-|le- i-|son, e- le- i-|
 G4 z4 | G6 c2 | A2 d3 c BA | (B2 e3 d cB | A3 G FE D2 | d2 e3 d cB) | c8- | c6 c2 | c8 |] %50
w: son,|Ky- ri-|e e­ * * *||||le­|* i-|son.|
[M:2/2]"^Gloria" z8 | z8 | z8 | G3 A (B2 d2- | d2 c4) B2 | c2 G2 A2 B2 |[M:2/2] c2 FF G2 AA | %57
w: |||Et in ter­ *|* * ra|pax. Lau- da- mus|te. Be- ne- di- ci- mus|
 G4 z4 | z8 | z8 | z8 | z2 d3 d e2 | c2 dd (d2 ^c2) | d4 !courtesy!=cccc | A2 GG G4 | G8 | z8 | %67
w: te.||||Gra- ti- as|a- gi- mus ti­ *|bi pro- pter ma- gnam|glo- ri- am tu-|am.||
 z8 | z8 | d3 d B2 e2- | edcB c3 c | d4 B2 B2 | A4 G4 | z8 | z8 | z8 | G8 | G4 G2 G2 | G2 c2 A4 | %79
w: ||Do- mi- ne Fi­|* li u- ni- ge- ni-|te Je- su|Chri- ste.||||Qui|tol- lis pec-|ca- ta mun-|
 G2 G4 G2 | c2 B2 A4 | B8 | z4 c4- | c2 B2 c4 | z4 G3 A | B2 d2 c4- | c2 B2 A4 | G4 z4 | %88
w: di, mi- se-|re- re no-|bis,|sus­|* ci- pe|de- pre-|ca- ti- o­|* nem no-|stram.|
 z2 G2 (d4 | e3 d/c/ BABc | d4) B4 | B2 A3 A B2 | c4 d4 | z8 | z8 | z8 | c3 c c2 G2 | A2 G2 A2 c2 | %98
w: Qui se­||* des|ad dex- te- ram|Pa- tris.||||Quo- ni- am tu|so- lus, so- lus|
 B4 B4 | z2 G2 G2 G2 | A3 G F4 | z8 | z4 d4- | d4 c4 | c8 | c6 c2 | c4 A4 | B3 B B2 A2 | %108
w: san- ctus.|Tu so- lus|Do- mi- nus,||Je­|* su|Chri-|ste. Cum|San- cto|Spi- ri- tu in|
 A2 G^F G2 A2 | B2 B2 z4 | z4 z2 E2 | A2 AA B2 c2 | d4 e4 | (d4 c4 | BdcB cG c2- | c2 BA B4) | %116
w: glo- ri- a De- i|Pa- tris,|in|glo- ri- a De- i|Pa- tris.|A­ *|||
 c8 |][M:4/4]"^Credo" G4 G2 G2 | G2 G2 A4 | G4 G4 | A2 A2 G4 | A2 (GF) (G2 c2- | c2 BA) B2 G2- | %123
w: men.|Pa- trem om-|ni- po- ten-|tem, fa-|cto- rem coe-|li et * ter­ *|* * * rae, vi­|
[M:4/4] G2 G2 G2 GA | B2 c2 B4 | d3 d c3 G | A3 A B4 | G6 G2 | A2 F2 G3 G | G8- | G4 z4 | z8 | z8 | %133
w: * si- bi- li- um|om- ni­ um|et in- vi- si-|bi- li- um,|et in-|vi- si- bi- li-|um.||||
 cccc BBBB | A2 GF G4 | F3 F E4 | z8 | (G8 | E4) G4 | A4 G3 G | B2 c2 B2 B2 | B3 A G2 G2 | %142
w: Et ex Pa- tre na- tum an- te|om- ni- a sae­|* cu- la.||De­|* um|ve- rum de|De- o ve- ro.|Ge- ni- tum, non|
 ^F2 F2 G2 A2 | !courtesy!=F2 D2 G3 F | E4 E2 e2 | d4 (d4- | d2 c4 B2 | c3) c d4 | c6 c2 | %149
w: fa- ctum, con- sub-|stan- ti- a- lem|Pa- tri, per|quem om­||* ni- a|fa- cta|
 B2 G2 G2 G2 | G4 G3 G | G2 G2 G2 G2 | G4 G2 G2 | G2 G2 z4 | z4 z2 G2 | G8 | A8 | G8 | G4 G4 || %159
w: sunt. Qui pro- pter|nos ho- mi-|nes et pro- pter|no- stram sa-|lu- tem|de-|scen-|dit|de|coe- lis.|
 z8 | z8 | z8 | z8 | z8 | z8 | z8 | z8 | z8 | z8 | z8 || c2 B2 (c2 d2) | G8 | A3 B c2 e2 | %173
w: |||||||||||Cru- ci- fi­ *|xus|e- ti- am pro|
 (A3 B) c4 | z8 | z8 | (G2 A2) B4 | (F2 G2) A4 | (E2 F2) G4 | G3 G G2 ^F2 | G8 | z4 z2 A2- | %182
w: no­ * bis,|||pas­ * sus,|pas­ * sus,|pas­ * sus|et se- pul- tus|est.|Et|
 A2 A2 B4 | c2 E2 (EF)GA | B2 B2 A4 | G2 G2 G2 GG | G4 G2 G2 | AGFF E2 G2 | F2 G2 G3 G | %189
w: * a- scen-|dit, a- scen­ * dit in|coe- lum, se-|det ad dex- te- ram|Pa- tris. Et|i- te- rum ven- tu- rus|est cum glo- ri-|
 G2 A3 AAA | G2 G2 A4 | G3 G G4- | G4 z4 | z8 | z8 | z8 |[M:3/4] z2 G2 G2 | G3 G G2 | F4 F2 | %199
w: a iu- di- ca- re|vi- vos et|mor- tu- os.|||||Et in|Spi- ri- tum|San- ctum,|
 E3 E E2 | A3 G F2 | A2 D4 |[M:4/4] E8 |[M:4/4] z8 | z8 | z8 | z8 |[M:3/4] d4 d2 | e3 e d2 | %209
w: Do- mi- num|et vi- vi-|fi- can-|tem.|||||si- mul,|si- mul ad-|
 d2 B4 | c4 e2 | d3 d d2 | e2 c4 |[M:4/4] B4 G2 A2 | B2 c2 d2 cB | (A2 B2 c2 BA | G2 A2 B2 c2- | %217
w: o- ra-|tur et|con- glo- ri-|fi- ca-|tur, qui lo-|cu- tus est per pro-|phe­ * * * *||
 c2 B2) c4 |[M:4/4] z8 | z8 | z4 z2 d2 | d2 d2 e3 d | c2 c2 d3 c | B4 z4 | z2 A2 A3 A | %225
w: * * tas.|||Et|a- pos- to- li-|cam ec- cle- si-|am.|Con- fi- te-|
 A2 A2 G2 G2 | G4 G4 | G3 G A2 F2 | E2 G2 G4- | G2 c2 (c2 BA) | B4 z4 | z8 | z2 G4 B2 | %233
w: or u- num bap-|tis- ma|in re- mis- si-|o- nem pec­|* ca- to­ * *|rum,||re- sur-|
 A2 A2 ^G2 G2 | A6 A2 | (A2 ^G2) A2 A2 | A4 G4 | z8 | z8 | z8 | z4 z2 G2 | A2 B2 c3 B | c4 (A4 | %243
w: rec- ti- o- nem|mor- tu-|o­ * rum. Et|vi- tam||||ven-|tu- ri sae- cu-|li. A­|
 G8- | G8) | G8 |][M:4/4]"^Sanctus & Benedictus" z2 (c4 B2 | A2 G2 A2 B2) | c4 z4 | z8 | %250
w: ||men.|San­ *||ctus,||
 z2 (c4 B2 | c2 G2 F4) | E2 z2 z4 | z8 | z8 | z2 G3 G G2 | A2 A2 A3 G | F8 | z8 | z8 | G3 G G4 | %261
w: san­ *||ctus,|||Do- mi- nus|De- us Sa- ba-|oth.|||glo- ri- a,|
 F4- FF G2 | G4 G4 | z4 z2 c2 | d2 d2 d2 d2 | B4 G2 G2 | c2 c2 c2 c2 | A4 A2 A2 | G2 G4 G2 | %269
w: glo­ * ri- a|tu- a.|Ho-|san- na in ex-|cel- sis, ho-|san- na in ex-|cel- sis, ho-|san- na, ho-|
 G2 G2 G4 | G4 G4 | G8 || z8 | z8 | z8 | z4 G4 | F4 E2 G2 | A3 A G4 | A2 G2 G4- | G4 z4 | %280
w: san- na in|ex- cel-|sis.||||qui|ve- nit in|no- mi- ne|Do- mi- ni.||
 z4 z2 c2 | d2 d2 d2 d2 | B4 G2 G2 | c2 c2 c2 c2 | A4 A2 A2 | G2 G4 G2 | G2 G2 G4 | G4 G4 | G8 |] %289
w: Ho-|san- na in ex-|cel- sis, ho-|san- na in ex-|cel- sis, ho-|san- na, ho-|san- na in|ex- cel-|sis.|
"^Agnus Dei" c8 | G4 (G4- | G4 ^F4) | G8 | z8 | z8 | z8 | z2 G2 A4 | B2 c2 c2 B2 | c8 | c4 z4 | %300
w: A-|gnus De­||i,||||qui tol-|lis pec- ca- ta|mun-|di,|
 z4 z2 c2 | d4 e2 c2 | c2 B2 c2 G2 | z8 | z2 c4 c2 | d6 d2 | c8 | B8 || c8 | G4 (G4- | G4 ^F4) | %311
w: qui|tol- lis pec-|ca- ta mun- di,||mi- se-|re- re|no-|bis.|A-|gnus De­||
 G8 | z8 | z8 | z8 | z2 G2 A4 | B2 c2 c2 B2 | c8 | c4 z4 | z4 z2 c2 | d4 e2 c2 | c2 B2 c2 G2 | z8 | %323
w: i,||||qui tol-|lis pec- ca- ta|mun-|di,|qui|tol- lis pec-|ca- ta mun- di,||
 z2 c4 c2 | d6 d2 | c8 || B4 d4- | d4 c4- |[M:4/4] c4 B4 | c8 | z8 | z2 c4 c2 | B4 B4 | c4 A2 d2- | %334
w: mi- se-|re- re|no-|bis. A­|* gnus|* De-|i,||do- na|no- bis|pa- cem, do­|
 d2 d2 e4- | e2 e2 (d4- | d2 e2- edcB | A4) d4 | z2 c4 c2 | d4 B4 | (c8- | c2 BA) B4 |] %342
w: * na no­|* bis pa­||* cem,|do- na-|no- bis|pa­|* * * cem.|
V:2
 z8 | C3 D E2 G2 | (F4 E2 G2- | G2 F2 E4 | D4 E2) F2 | G4 z4 | z8 | z2 G4 F2 |[M:2/2] E6 D2 | %9
w: |Ky- ri- e e-|le­ * *||* * i-|son,||Ky- ri-|e e-|
 (E^F G4) F2 | G4 E4- | E2 E2 E4- | E2 E2 D2 D2 | D4 E4 | D6 D2 | E8 || z8 | z4 C4 | F2 E2 F2 G2 | %19
w: le­ * * i-|son, Ky­|* ri- e|* e- le- i-|son, e-|le- i-|son.||Chri-|ste e- le- i-|
 A6 G2 | F4 D4 | E4 z4 | z8 | z8 | z4 (E4- | E2 G2 A4 | G4) F2 D2 | E4 z4 | z4 z2 E2 | (F6 ED | %30
w: son, e-|le- i-|son,|||e­||* le- i-|son,|e-|le­ * *|
 E6) E2 | D8 || z8 | z8 | z4 (G4 | E2) G2 A3 G | (FE F2) (G3 F | ED C4) (F2- | FEFE D2 G2- | %39
w: * i-|son.|||Ky­|* ri- e *|* * * e­ *|* * * lei­||
 GFED E4) | D2 G2 F2 D2 | E4 F4 | E3 F G4 | z2 F2 D2 G2- | GF E4 E2 | (FG A4 G2- | GFED) E4- | %47
w: |son, e- le- i-|son, e-|le- i- son,|e- le­ *|* i- son, e-|lei­ * * *|* * * * son,|
 E4 G4 | F6 F2 | E8 |][M:2/2] z8 | C3 D E2 G2 | F2 D2 E3 E | D2 D4 D2 | E2 E2 F4 | E4 z4 | %56
w: * e-|le- i-|son.||Et in ter- ra|pax ho- mi- ni-|bus bo- nae|vo- lun- ta-|tis.|
[M:2/2] z8 | z2 E2 F2 G2 | A2 DD E2 FF | G2 G2 G2 G2 | G2 ^F2 G4 | G6 GG | A2 FF E4 | F4 GGGG | %64
w: |Lau- da- mus|te. Be- ne- di- ci- mus|te. Glo- ri- fi-|ca- mus te.|Gra- ti- as|a- gi- mus ti-|bi pro- pter ma- gnam|
 F2 GE D4 | E8 | z8 | z8 | z8 | z4 G3 G | E2 A3 G^FE | ^F2 EF G2 G2 | (G2 ^F2) G2 G2- | %73
w: glo- ri- am tu-|am.||||Do- mi-|ne Fi- li u- ni-|ge- ni- te Je- su|Chri­ * ste. Do­|
 GG E2 A3 G | FE D2 G2 G2- | GG G2 E4 | D4 z2 B,2 | E4 E2 E2 | E2 E2 F4 | E2 E4 D2 | C2 D2 D4 | %81
w: * mi- ne De- us|A- gnus De- i, Fi­|* li- us Pa-|tris. Qui|tol- lis pec-|ca- ta mun-|di, mi- se-|re- re no-|
 D4 z4 | z8 | z2 G4 E2 | D4 z2 G2- | G2 F2 E4 | z4 C3 D | E2 G2 F2 E2 | D4 D4 | z4 z2 D2 | G4 G4 | %91
w: bis,||sus- ci-|pe, sus­|* ci- pe|de- pre-|ca- ti- o- nem|no- stram.|Qui|se- des|
 D2 F3 F D2 | E2 E2 G3 G | ^F2 G2 A4 | (G3 F/E/ D4 | CDEF G4) | E4 z4 | z8 | z2 D2 D2 D2 | %99
w: ad dex- te- ram|Pa- tris, mi- se-|re- re no­|||bis.||Tu so- lus|
 G3 F E2 E2 | F2 E2 D4 | E3 E A2 A2 | G3 G G4 | G4 G4 | F8 | E6 E2 | E4 D4 | D6 E2 | D4 z2 D2 | %109
w: Do- mi- nus. Tu|so- lus al-|tis- si- mus, al-|tis- si- mus,|Je- su|Chri-|ste. Cum|San- cto|Spi- ri-|tu in|
 D2 CB, C2 D2 | E2 E2 z2 G2 | C2 CC D2 E2 | F4 G4 | G8- | G8- | G8 | G8 |][M:4/4] C4 E2 E2 | %118
w: glo- ri- a De- i|Pa- tris, in|glo- ri- a De- i|Pa- tris.|A­|||men.|Pa- trem om-|
 D2 E2 F4 | E4 z4 | z2 C2 E2 G2 | F2 F4 E2 | D4 D4- |[M:4/4] D4 z4 | G8- | G2 D2 E2 G2 | %126
w: ni- po- ten-|tem,|fa- cto- rem|coe- li et|ter- rae,||et|* in- vi- si-|
 G2 ^F2 G2 D2- | D2 D2 D2 G2 | (F3 C D2) D2 | E4 EEEE | D2 GG F2 E2 | D4 C2 F2- | FF E2 FEFD | %133
w: bi- li- um, et|* in- vi- si-|bi­ * * li-|um. Et in u- num|Do- mi- num Je- sum|Chri- stum, Fi­|* li- um De- i u- ni-|
 E3 E D4- | D4 z4 | z4 z2 G2 | G2 G2 (G2 FE | D2) E2 D4 | C6 E2 | C2 F4 E2 | D2 E2 D2 D2 | z8 | %142
w: ge- ni- tum.||Lu-|men de lu­ * *|* mi- ne,|De- um|ve- rum de|De- o ve- ro.||
 z8 | z8 | z2 G2 G4 | z4 z2 A2 | G4 z2 F2 | E2 A3 A G2 | G4 ^F4 | G2 D2 D2 D2 | E4 D3 D | %151
w: ||per quem,|per|quem, per|quem om- ni- a|fa- cta|sunt. Qui pro- pter|nos ho- mi-|
 D2 D2 G2 F2 | E4 E2 E2 | D2 D2 z2 G2 | F4 E2 E2 | E8 | F4 F4- | F4 (E4- | E2 DC) D4 || E8 | %160
w: nes et pro- pter|no- stram sa-|lu- tem de-|scen- dit de-|scen-|dit de|* coe­|* * * lis.|Et|
 C4 F4 | D4 G4 | E4 A4 | F2 FF D4 | D2 D4 G2 | G2 F2 E3 E | E2 E2 E4 | E2 E2 E2 E2 | E6 A2 | ^G8 || %170
w: in- car-|na- tus|est de|Spi- ri- tu San-|cto ex Ma-|ri- a Vir- gi-|ne, et ho-|mo, et ho- mo|fa- ctus|est.|
 E2 G2 F4 | E8 | C3 D E2 G2 | F4 E4 | z2 G2 A3 A | G2 G2 F4 | E4 (D2 E2) | F4 (C2 D2) | E8 | %179
w: Cru- ci- fi-|xus|e- ti- am pro|no- bis,|sub Pon- ti-|o Pi- la-|to pas­ *|sus, pas­ *|sus,|
 D2 E2 D2 D2 | D2 D2 D2 D2 | E2 E2 E2 EE | F4 F2 G2 | G2 GG E4 | D2 G4 F2- | F2 (ED) E2 EE | %186
w: et se- pul- tus|est. Et re- sur-|re- xit ter- ti- a|di- e, se-|cun- dum scri- ptu-|ras, se- det|* ad * dex- te- ram|
 D4 E4 | z8 | z4 E3 E | E2 F2 F4 | E4 C4 | E3 E E4 | z4 A4 | F4 F2 D2 | G4 (G2 E2) | F2 F2 D4 | %196
w: Pa- tris.||Iu- di-|ca- re vi-|vos et|mor- tu- os,|cu-|ius re- gni|non e­ *|* rit fi-|
[M:3/4] E2 E2 E2 | D3 D E2 | E4 D2 | D3 D C2 | C3 C C2 | C2 (C2 B,2) |[M:4/4] C8 |[M:4/4] z8 | z8 | %205
w: nis. Et in|Spi- ri- tum|San- ctum,|Do- mi- num|et vi- vi-|fi- can­ *|tem.|||
 z8 | z8 |[M:3/4] ^F4 G2 | G3 G F2 | F2 D4 | E4 G2 | G3 G G2 | G2 (G2 ^F2) |[M:4/4] G4 z4 | %214
w: ||si- mul,|si- mul ad-|o- ra-|tur et|con- glo- ri-|fi- ca­ *|tur,|
 D2 E2 F2 G2 | A2 GF (E2 F2 | G2 FE D2 E2 | D4) C4 |[M:4/4] z8 | z8 | z8 | z2 G2 G2 G2 | %222
w: qui lo- cu- tus|est per pro- phe­ *||* tas.||||Et a- pos-|
 A3 G ^F2 F2 | G3 F E2 E2 | F3 F F4 | F4 D2 D2 | E4 D4 | z8 | z8 | z8 | z2 G4 G2 | F4 E4 | G4 D4 | %233
w: to- li- cam ec-|cle- si- am. Con-|fi- te- or|u- num ba-|pti- sma.||||Et ex-|pe- cto|re- sur-|
 F2 D2 E2 E2 | E4 E4 | E4 E2 E2 | F4 E4 | z8 | z2 D2 E4 | D2 D2 E2 F2 | G2 (FE) D4 | z4 G4 | %242
w: rec- ti- o- nem|mor- tu-|o- rum. Et|vi- tam,||et vi-|tam ven- tu- ri|sae- cu­ * li,|ven-|
 G2 E2 F2 FF | (FDGF E2 DC | D8) | E8 |][M:4/4] (C3 D E2 G2 | F2 E2 D4 | E3 F G4 | C3 D/E/ F4 | %250
w: tu- ri sae- cu- li.|A­ * * * * * *||men.|San­ * * *||||
 E4 D4) | C2 z2 z4 | G8- | (G6 FE) | D2 D3 D D2 | E2 E2 E3 D | C8 | z2 F4 F2 | D4 (G3 F) | %259
w: |ctus,|san­||ctus Do- mi- nus|De- us Sa- ba-|oth.|Ple- ni|sunt coe­ *|
 E2 A3 G F2 | E4 E4 | z8 | z2 E2 D4 | C2 E2 F2 F2 | F2 F2 F4 | D2 D4 G2- | G2 E4 E2 | C2 C2 z2 F2 | %268
w: li, coe- li et|ter- ra.||Ho- san-|na, ho- san- na|in ex- cel-|sis, ho- san­|* na, ho-|san- na, ho-|
 E4 E4 | D4 E4 | D8 | E8 || z8 | z8 | z4 z2 E2 | (C2 D2) E4 | z4 z2 E2 | F3 F G4 | F2 D2 E2 E2 | %279
w: san- na|in ex-|cel-|sis.|||qui|ve­ * nit|in|no- mi- ne|Do- mi- ni. Ho-|
 D8 | C2 E2 F2 F2 | F2 F2 F4 | D2 D4 G2- | G2 E4 E2 | C2 C2 z2 F2 | E4 E4 | D4 E4 | D8 | E8 |] G8 | %290
w: san-|na, ho- san- na|in ex- cel-|sis, ho- san­|* na, ho-|san- na, ho-|san- na|in ex-|cel-|sis.|A-|
 G8 | A8 | D8 | z8 | z8 | z2 C2 D4 | E2 G2 G2 F2 | (G2 E2 D4) | C2 C2 G4 | A2 F2 F2 E2 | F6 E2 | %301
w: gnus|De-|i,|||qui tol-|lis pec- ca- ta|mun­ * *|di, qui tol-|lis pec- ca- ta|mun­ *|
 D4 C2 G2- | G2 G2 E4 | E2 E4 C2 | A,4 F4- | F4 G4- | (GFED E4) | D8 || G8 | G8 | A8 | D8 | z8 | %313
w: * di, mi­|* se- re-|re, mi- se-|re- re|* no­||bis.|A-|gnus|De-|i,||
 z8 | z2 C2 D4 | E2 G2 G2 F2 | (G2 E2 D4) | C2 C2 G4 | A2 F2 F2 E2 | (F6 E2 | D4) C2 G2- | %321
w: |qui tol-|lis pec- ca- ta|mun­ * *|di, qui tol-|lis pec- ca- ta|mun­ *|* di, mi­|
 G2 G2 E4 | E2 E4 C2 | A,4 F4- | F4 (G4- | GFED E4) || D8 | G6 G2 |[M:4/4] F8 | E8 | z2 C2 D4 | %331
w: * se- re-|re, mi- se-|re- re|* no­||bis|A- gnus|De-|i,|qui tol-|
 E2 G2 G2 ^F2 | G8 | E4 z4 | z2 G4 G2 | A4 ^F4 | G4 E4 | z4 z2 G2- | G2 G2 A4 | B8 | E8 | E8 |] %342
w: lis pec- ca- ta|mun-|di,|do- na|no- bis|pa- cem,|do­|* na no-|bis|pa-|cem.|
V:3
 z2 c4 B2 | A4 G4 | A2 B2 c4 | z8 | G3 A B2 (d2- | d2 c4 B2- | B2) c4 (BA) | B4 z4 | %8
w: Ky- ri-|e e-|le- i- son,||Ky- ri- e e­||* le- i­ *|son,|
[M:2/2] z2 G3 A B2 | (c3 B) A2 A2 | B4 c4- | c2 c2 c4- | c2 c2 c2 c2 | B4 (cG) (c2- | %14
w: Ky- ri- e|e­ * le- i-|son, Ky­|* ri- e|* e- le- i-|son, e­ * le­|
 c2 BA B2) B2 | c8 || c8 | A2 B2 c4- | (c4 A2 G2 | F6 G2 | A4) B4 | c4 G4 | A2 G2 A2 B2 | c8 | %24
w: * * * * i-|son.|Chri-|ste e- le­|||* i-|son, Chri-|ste e- le- i-|son,|
 z4 z2 c2 | B2 (G2 c2 d2- | d2) c4 B2 | c2 e2 d2 B2 | c2 d2 e2 c2 | (c4 d4- | d2 cB c3) c | B8 || %32
w: Chri-|ste e­ * *|* le- i-|son, Chri- ste e-|le- i- son, e-|le­ *|* * * * i-|son.|
 z4 (G4 | E2) G2 A3 G | (FE) F2 G4- | G4 c3 B | (AG A2) G3 G | G4 z2 A2- | A2 (d3 c BA | %39
w: Ky­|* ri- e e-|le­ * i- son,|* e­ *|* * * le- i-|son, e­|* le­ * * *|
 G2) G2 G4- | G2 G2 A2 B2 | c2 c4 B2 | c8 | z2 d2 B2 d2 | (e3 d cB c2- | cB A2 d3 c | BA G4 A2- | %47
w: * i- son,|* e- le- i-|son, Ky- ri-|e|e- le­ *||||
 A2 c4 G2 | A6) A2 | G8 |][M:2/2] z2 c4 B2 | A4 G4 | A2 B2 c3 c | B2 B4 B2 | G2 G2 d4 | %55
w: |* i-|son.|Et in|ter- ra|pax ho- mi- ni-|bus bo- nae|vo- lun- ta-|
 G2 e2 d2 d2 |[M:2/2] c2 dd c2 cc | B2 ee d2 c2 | ccBB c2 d2 | e2 e2 d2 (cB) | A2 A2 B4 | B6 cc | %62
w: tis. Lau- da- mus|te. Be- ne- di- ci- mus|te. Ad- o- ra- mus|te. Glo- ri- fi- ca- mus|te, glo- ri- fi­ *|ca- mus te.|Gra- ti- as|
 A2 AA A4 | A4 GGGG | A2 cc (c2 B2) | c4 z2 c2- | cc A2 d3 c | BA B2 c2 A2 | B2 c4 BB | A3 A G4 | %70
w: a- gi- mus ti-|bi pro- pter ma- gnam|glo- ri- am tu­ *|am. Do­|* mi- ne De- us,|Rex coe- le- stis, De-|us Pa- ter om-|ni- po- tens.|
 z8 | z8 | d3 d B4 | e3 d cB A2- | A2 B4 c2- | cc d2 c4 | B4 z2 G2 | c4 c2 c2 | c2 c2 F4 | %79
w: ||Do- mi- ne|De- us, A- gnus De­|* i, Fi­|* li- us Pa-|tris. Qui|tol- lis pec-|ca- ta mun-|
 c2 c4 B2 | A2 G2 ^F4 | G2 G2 d4 | d2 d2 c2 A2 | d4 c4 | d3 d e4 | z8 | G3 G A2 B2 | c2 G2 (AB c2 | %88
w: di, mi- se-|re- re no-|bis. Qui tol-|lis pec- ca- ta|mun- di,|sus- ci- pe||de- pre- ca- ti-|o- nem no­ * *|
 B4) B2 G2 | (c4 d3 c | BABc d4- | d4) d4 | z2 c4 B2 | A2 B2 c4 | (G6 F2) | E2 z2 G3 G | A4 z2 E2 | %97
w: * stram. Qui|se­ * *||* des,|mi- se-|re- re no­||bis. Quo- ni-|am tu|
 F2 E2 F2 A2 | G4 G4 | z2 c2 c2 c2 | A3 A A2 A2 | c2 A4 c2 | c3 B B4 | B4 c4 | A8 | G6 G2 | %106
w: so- lus, so- lus|san- ctus.|Tu so- lus|Do- mi- nus. Tu|so- lus al-|tis- si- mus,|Je- su|Chri-|ste. Cum|
 A4 ^F4 | G6 G2 | ^F4 z2 d2 | B2 AG A2 B2 | (c2 de d2 c2- | cB A2) G4 | A2 A2 z2 (c2 | B4 e4 | %114
w: San- cto|Spi- ri-|tu in|glo- ri- a De- i|Pa­ * * * *|* * * tris.|A- men, a­||
 dBcd e3 d/c/ | d8) | e8 |][M:4/4] c4 c2 c2 | B2 c2 (FGAB | c6 B2) | c8 | z8 | z4 B4- | %123
w: ||men.|Pa- trem om-|ni- po- ten­ * * *||tem,||vi­|
[M:4/4] B2 B2 B2 Bc | d2 e2 d4 | z8 | z4 z2 B2- | B2 B2 B2 c2 | c6 B2 | c4 cccc | B2 BB A2 G2 | %131
w: * si- bi- li- um|om- ni- um.||et|* in- vi- si-|bi- li-|um. Et in u- num|Do- mi- num Je- sum|
 F4 E2 A2- | AA G2 FGAB | c3 c G4 | z4 c4 | A2 B2 c2 G2 | z2 B2 c2 A2 | B2 c2 B4 | z8 | z8 | %140
w: Chri- stum, Fi­|* li- um De- i u- ni-|ge- ni- tum.|De-|um de de- o,|lu- men de|lu- mi- ne.|||
 z4 z2 d2- | d3 c B2 B2 | A2 d2 c2 A2 | A2 B2 c2 B2 | c4 c2 c2 | B4 A3 A | B2 (c2 d3) d | %147
w: Ge­|* ni- tum, non|fa- ctum, con- sub-|stan- ti- a- lem|Pa- tri, per|quem om- ni-|a fa­ * cta|
 G2 z2 z4 | z8 | B4 B2 B2 | c4 B3 B | B2 B2 B2 d2 | c4 c2 c2 | B2 B2 c4 | (c2 B2) c4 | z2 c2 c4 | %156
w: sunt.||Qui pro- pter|nos ho- mi-|nes et pro- pter|no- stram sa-|lu­ tem de-|scen­ * dit|de- scen-|
 A2 c2 d4 | d2 d2 (dG c2- | c2 BA) B4 || G8 | A8 | B8 | c2 c2 c3 c | c2 BB B4 | B4 B2 B2 | %165
w: dit de- scen-|dit de coe­ * *|* * * lis.|Et|in-|car-|na- tus est de|Spi- ri- tu San-|cto ex Ma-|
 c2 d2 G3 G | G2 G2 c4 | c2 c2 c2 B2 | c4 c4 | B8 || c2 G2 (A2 B2) | c2 c4 B2 | A4 G4 | d4 c4 | %174
w: ri- a Vir- gi-|ne, et ho-|mo, et ho- mo|fa- ctus|est.|Cru- ci- fi­ *|xus e- ti-|am pro|no­ *|
 B4 c4 | z4 (A2 B2) | c4 (B2 c2) | d4 (A2 B2) | c4 c4 | (d2 cB) A2 A2 | B2 B2 B2 B2 | c2 c2 c2 cc | %182
w: * bis,|pas­ *|sus, pas­ *|sus, pas­ *|sus, et|se­ * * pul- tus|est. Et re- sur-|re- xit ter- ti- a|
 (cBAG) F2 z2 | z8 | z2 B2 c4 | d4 c2 cc | (c2 B2) c2 c2 | FGAB c2 B2 | A2 B2 c3 c | c4 z4 | z8 | %191
w: di­ * * * e,||se- det|ad dex- te- ram|Pa­ * tris. Et|i- te- rum ven- tu- rus|est cum glo- ri-|a.||
 z4 G4 | c4 A4 | A2 d2 B4 | c4 z2 c2 | (AB) c2 (c2 B2) |[M:3/4] c2 c2 c2 | B3 B c2 | A4 _B2 | %199
w: Cu-|ius re-|gni non e-|rit, non|e­ * rit fi­ *|nis. Et in|Spi- ri- tum|San- ctum,|
 G3 G A2 | F3 G A2 | F2 G4 |[M:4/4] C2 z2 G2 A2 |[M:4/4] B2 c2 d2 cB | A2 B2 c2 (BA) | %205
w: Do- mi- num|et vi- vi-|fi- can-|tem. Qui ex|Pa- tre Fi- li- o-|que pro- ce- dit. *|
 G2 A2 B2 AG | ^F3 G A4 |[M:3/4] A4 B2 | c3 c A2 | A2 G4 | G4 c2 | B3 B B2 | B2 c4 |[M:4/4] d4 z4 | %214
w: Qui cum Pa- tre et|Fi- li- o|si- mul,|si- mul ad-|o- ra-|tur et|con- glo- ri-|fi- ca-|tur.|
 z8 | z8 | z8 | z4 z2 c2 |[M:4/4] A2 F2 z2 d2 | B2 G2 c4 | A2 F2 d3 c | B4 z4 | z8 | z2 G2 c3 c | %224
w: |||Et|u- nam, et|u- nam san-|ctam ca- tho- li-|cam.||Con- fi- te-|
 c8 | d4 B2 B2 | c4 B4 | B2 c2 A2 B2 | c2 c2 d2 (cB) | (e2 dc) d4- | d4 z4 | G2 B2 c4 | B2 B4 d2 | %233
w: or|u- num ba-|pti- sma|in re- mis- si-|o- nem pec- ca­ *|to­ * * rum.||Et ex- pec-|to re- sur-|
 d2 d2 B2 B2 | c4 c4 | B4 c2 c2 | c4 c2 G2 | A2 G2 A2 B2 | c2 B2 c4 | B2 B2 c2 d2 | e2 (dc) B4 | %241
w: re- cti- o- nem|mor- tu-|o- rum. Et|vi- tam ven-|tu- ri sae- cu-|li et vi-|tam ven- tu- ri|sae- cu­ * li,|
 z4 z2 c2 | c2 c2 (cAdc | B3) B c4 | (c2 BA B4) | c8 |][M:4/4] z8 | z8 | z2 (c4 B2 | A2 G2 A2 B2) | %250
w: ven-|tu- ri sae­ * * *|* cu- li.|A­ * * *|men.|||San­ *||
 c4 z4 | e4 d2 cB | cd e4 d2 | (c3 d e2 dc) | B2 G3 G G2 | c2 c2 c3 B | A8 | z2 A4 A2 | %258
w: ctus,|san­ * * *|||ctus, Do- mi- nus|De- us Sa- ba-|oth.|Ple- ni|
 B2 d3 c B2 | c3 B A4 | G6 c2 | A4- AA B2 | (cG c4 B2) | c6 c2 | A6 d2- | d2 B4 e2 | e2 c2 z4 | %267
w: sunt coe- * li,|coe- li et|ter- ra|glo­ * ri- a|tu­ * * *|a. Ho-|san- na|* in ex-|cel- sis,|
 z2 c2 c2 c2 | z2 G2 c2 c2 | B4 c4 | (c2 BA B4) | c8 || z8 | G4 A4 | B4 c2 c2 | (A2 B2) c2 e2 | %276
w: ho- san- na.|ho- san- na|in ex-|cel­ * * *|sis.||Be- ne-|dic- tus qui|ve­ * nit, qui|
 (c2 d2) c4 | z8 | z4 z2 c2 | B4 B2 B2 | c2 c4 c2 | A6 d2- | d2 B4 e2 | e2 c2 z4 | z2 c2 c2 c2 | %285
w: ve­ * nit.||Ho-|san- na. ho-|san- na, ho-|san- na|* in ex-|cel- sis,|ho- san- na|
 z2 G2 c2 c2 | B4 c4 | (c2 BA B4) | c8 |] e8 | e8 | c8 | B8 | z8 | z2 G2 A4 | B2 c2 c2 B2 | c8 | %297
w: ho- san- na|in ex-|cel­ * * *|sis.|A-|gnus|De-|i,||qui tol-|lis pec- ca- ta|mun-|
 G8 | z8 | z2 A2 c4 | d2 A2 B2 c2- | c2 B2 c4 | d4 z2 G2- | G2 G2 A4- | A4 A4- | A4 G4- | G8 | %307
w: di,||qui tol-|lis pec- ca­ *|* ta mun-|di, mi­|* se- re­|* re|* no­||
 G8 || e8 | e8 | c8 | B8 | z8 | z2 G2 A4 | B2 c2 c2 B2 | c8 | G8 | z8 | z2 A2 c4 | d2 A2 B2 c2- | %320
w: bis.|A-|gnus|De-|i,||qui tol-|lis pec- ca- ta|mun-|di,||qui tol-|lis pec- ca­ *|
 c2 B2 c4 | d4 z2 G2- | G2 G2 A4- | A4 A4- | A4 G4- | G8 || G4 B4- | B4 c4 |[M:4/4] d8 | G4 z2 G2 | %330
w: * ta mun-|di, mi­|* se- re­|* re|* no­||bis. A­|* gnus|De-|i, qui|
 A4 B2 d2 | c2 c2 A4 | B4 z2 e2- | e2 c2 d4 | B4 z2 c2- | c2 c2 d4 | B2 c4 A2 | F2 F2 G4 | %338
w: tol- lis pec-|ca- ta mun-|di, do­|* na no-|bis, do­|* na no-|bis pa- cem,|do- na no-|
 G4 (E4- | E8- | E4 A4- | A2 ^G^F) G4 |] %342
w: bis pa­|||* * * cem.|
V:4
 C,3 D, E,2 G,2 | (F,4 E,4 | D,2) D,2 C,4 | z8 | z2 G,4 F,2 | E,4 D,4 | E,4 F,4 | G,4 z4 | %8
w: Ky- ri- e e-|le­ *|* i- son,||Ky- ri-|e e-|le- i-|son,|
[M:2/2] C,3 D, E,2 G,2 | C,4 D,4 | G,4 C,4- | C,2 C,2 A,,4 | (A,4 F,4) | G,8- | G,6 G,2 | C,8 || %16
w: Ky- ri- e e-|le- i-|son, Ky­|* ri- e|e­ *|le­|* i-|son.|
 C,4 F,2 E,2 | F,2 G,2 A,4 | z2 A,2 F,2 E,2 | (D,6 E,2 | F,4 G,2) G,,2 | C,8 | z8 | C,4 F,2 E,2 | %24
w: Chri- ste e-|le- i- son,|Chri- ste e-|le­ *|* * i-|son,||Chri- ste e-|
 F,2 G,2 A,4 | (G,4 F,4 | E,4) F,2 G,2 | C,2 C2 B,2 G,2 | A,2 B,2 C2 C,2 | (F,4 B,,4 | C,6) C,2 | %31
w: le- i- son,|e­ *|* le- i-|son, Chri- ste e-|le- i- son, e-|le­ *|* i-|
 G,8 || z8 | z8 | z8 | (C,4 A,,2) C,2 | (D,3 C, B,,A,,) B,,2 | (C,2 E,2 F,3 E, | D,C, D,2 G,3 F, | %39
w: son.||||Ky­ * ri-|e * * * e-|le­ * * *||
 E,D, C,4) C,2 | G,4 z4 | C,4 D,4 | E,6 C,2 | F,2 D,2 G,3 F, | (E,D,C,B,, A,,2 A,2- | %45
w: * * * i-|son,|Ky- ri-|e e-|le- i- son, e-|le­ * * * * *|
 A,G,F,E, D,C,B,,A,, | G,,2 C,3 B,, A,,G,, | A,,4 E,4 | F,6) F,2 | C,8 |][M:2/2] C,3 D, E,2 G,2 | %51
w: |||* i-|son.|Et in ter- ra|
 F,4 E,4 | D,3 D, C,4 | z2 G,4 F,2 | E,2 E,2 D,4 | C,2 C,2 F,2 G,2 |[M:2/2] A,2 D,D, E,2 ^F,F, | %57
w: pax ho-|mi- ni- bus|bo- nae|vo- lun- ta-|tis. Lau- da- mus|te. Be- ne- di- ci- mus|
 G,2 C,C, D,2 E,2 | F,F,G,G, E,2 D,2 | C,3 C, B,,2 C,2 | D,2 D,2 G,,4 | z2 G,3 G, E,2 | %62
w: te. Ad- o- ra- mus|te. Glo- ri- fi- ca- mus|te, glo- ri- fi-|ca- mus te.|Gra- ti- as|
 F,2 D,D, A,4 | D,4 E,E,E,E, | F,2 E,C, G,4 | C,8 | F,3 F, D,2 G,2- | G,F,E,D, E,2 F,2 | %68
w: a- gi- mus ti-|bi prop- ter ma- gnam|glo- ri- am tu-|am.|Do- mi- ne De­|* us, Rex coe- le- stis,|
 D,2 E,2 ^F,2 G,G, | G,2 ^F,2 G,4 | z8 | z8 | z4 G,3 G, | E,2 A,3 G,F,E, | D,2 G,4 E,2- | %75
w: De- us Pa- ter om-|ni- po- tens.|||Do- mi-|ne De- us, A- gnus|De- i, Fi­|
 E,E, B,,2 C,4 | G,,8 | z8 | z8 | z8 | z4 z2 D,2 | G,4 G,2 G,2 | ^F,2 G,2 A,4 | G,4 z2 C,2- | %84
w: * li- us Pa-|tris.||||Qui|tol- lis pec-|ca- ta mun-|di, sus­|
 C,2 B,,2 C,4 | z4 C,3 D, | E,2 G,2 F,4 | (E,4 D,2) C,2 | G,4 G,4 | z2 C,2 G,4 | G,8 | %91
w: * ci- pe|de- pre-|ca- ti- o­|* * nem|no- stram|Qui se-|des|
 G,2 F,3 F, G,2 | C,4 G,4 | z2 G,4 F,2 | E,2 C,2 B,,4 | C,4 z4 | z8 | z8 | z2 G,2 G,2 G,2 | %99
w: ad dex- te- ram|Pa- tris,|mi- se-|re- re no-|bis.|||Tu so- lus|
 E,3 D, C,2 C,2 | F,4 D,2 D,2 | A,3 G, F,4 | z4 G,4- | G,4 E,4 | F,8 | C,6 C,2 | A,,4 D,4 | %107
w: Do- mi- nus. Tu|so- lus al-|tis- si- mus,|Je­|* su|Chri-|ste. Cum|San- cto|
 G,,3 A,, B,,2 C,2 | D,2 D,D, E,2 ^F,2 | G,2 G,2 z2 G,2 | C,2 C,C, D,2 E,2 | F,6 E,2 | D,4 C,4 | %113
w: Spi- ri- tu in|glo- ri- a De- i|Pa- tris, in|glo- ri- a De- i|Pa- tris.|A- men,|
 G,8- | G,8- | G,8 | C,8 |][M:4/4] z8 | z8 | z2 C,2 E,2 G,2 | F,4 E,4 | (D,4 C,4) | G,4 G,4- | %123
w: A­|||men.|||fa- cto- rem|coe- li|et *|ter- rae,|
[M:4/4] G,4 z4 | z4 G,4 | B,,4 C,2 E,2 | D,3 D, G,,4 | z2 G,4 E,2 | F,2 A,2 G,3 G, | C,8 | z8 | %131
w: |et|in- vi- si-|bi- li- um,|et in-|vi- si- bi- li-|um.||
 z8 | z8 | z4 G,G,G,G, | F,F,F,F, E,2 D,C, | D,3 D, C,4 | z2 G,2 E,2 F,2 | G,2 C,2 G,4 | A,4 E,4 | %139
w: ||Et ex Pa- tre|na- tum an- te om- ni- a|sae- cu- la.|Lu- men de|lu- mi- ne.|De- um|
 F,4 C,3 C, | G,2 C2 G,2 G,2 | G,,3 A,, B,,2 C,2 | D,2 D,2 E,2 F,2 | D,2 G,2 E,2 D,2 | C,4 C,4 | %145
w: ve- rum de|De- o ve- ro.|Ge- ni- tum, non|fa- ctum, con- sub-|stan- ti- a- lem|Pa- tri,|
 z2 G,2 F,4 | z2 E,2 D,4 | C,3 C, B,,4 | A,,6 A,,2 | G,,2 G,2 G,2 G,2 | C,4 G,3 G, | %151
w: per quem,|per quem|om- ni- a|fa- cta|sunt. Qui pro- pter|nos ho- mi-|
 G,2 G,2 G,2 G,2 | C,4 C,2 C,2 | G,2 G,2 E,4 | D,4 C,4- | C,2 z2 z4 | z2 F,2 D,4 | B,,4 C,4 | %158
w: nes et pro- pter|no- stram sa-|lu- tem de-|scen- dit,||de- scen-|dit de|
 G,4 G,4 || C,8 | F,4 D,4 | G,4 E,4 | A,4 F,4 | D,2 D,D, G,4 | G,4 G,2 G,2 | E,2 D,2 C,3 C, | %166
w: coe- lis.|Et|in- car-|na- tus|est de|Spi- ri- tu San-|cto ex Ma-|ri- a Vir- gi-|
 C,2 C,2 A,,4 | A,,2 A,2 A,2 ^G,2 | A,4 A,,4 | E,8 || z8 | C,3 D, E,2 G,2 | F,4 E,4 | %173
w: ne, et ho-|mo, et ho- mo|fa- ctus|est.||e- ti- am pro|no- bis,|
 z2 D,2 A,3 A, | G,2 G,2 F,4 | E,4 z4 | (E,2 F,2) G,4 | (D,2 E,2) F,4 | (C,2 D,2) E,4 | %179
w: sub Pon- ti-|o Pi- la-|to|pas­ * sus,|pas­ * sus,|pas­ * sus|
 B,,2 C,2 D,2 D,2 | G,,8 | z2 A,2 A,2 A,2 | (A,G,F,E,) D,2 G,F, | E,2 E,2 (C,D,)E,F, | %184
w: et se- pul- tus|est.|Et re- sur-|re­ * * * xit re- sur-|re- xit ter­ * ti- a|
 G,2 G,2 z2 A,2 | B,2 B,2 C2 C,C, | G,4 C,4 | z8 | z4 z2 C,2- | C,2 F,2 D,2 D,2 | E,2 E,2 F,4 | %191
w: di- e, se-|det ad dex- te- ram|Pa- tris.||Iu­|* di- ca- re|vi- vos et|
 C,3 C, C,4 | C,4 F,4 | D,4 D,2 G,2 | E,4 E,2 A,2 | F,2 F,2 G,4 |[M:3/4] C,6 | z6 | z6 | z6 | z6 | %201
w: mor- tu- os,|cu- ius|re- gni non|e- rit, non|e- rit fi-|nis.|||||
 z6 |[M:4/4] C,2 D,2 E,2 F,2 |[M:4/4] G,2 F,E, D,2 E,2 | F,2 (E,D,) C,2 D,2 | E,2 D,C, B,,2 C,2 | %206
w: |Qui ex Pa- tre|Fi- li- o qui pro-|ce- dit. * Qui cum|Pa- tre et Fi- li-|
 D,8 |[M:3/4] D,4 G,2 | E,3 E, F,2 | F,2 G,4 | C,4 C,2 | G,3 G, G,2 | E,2 A,4 |[M:4/4] G,8 | z8 | %215
w: o|si- mul,|si- mul ad-|o- ra-|tur et|con- glo- ri-|fi- ca-|tur.||
 z8 | z8 | z2 G,2 E,2 C,2 |[M:4/4] z2 A,2 F,2 D,2 | G,4 E,2 C,2 | F,3 E, D,4 | z8 | z8 | %223
w: ||Et u- nam,|et u- nam|san- ctam ca-|tho- li- cam.|||
 z4 z2 C,2 | F,3 F, F,4 | D,4 G,2 G,2 | C,4 G,4 | G,2 E,2 F,2 D,2 | E,2 E,2 B,,4 | C,4 G,,4 | %230
w: Con-|fi- te- or|u- num ba-|pti- sma|in re- mis- si-|o- nem pec-|ca- to-|
 G,,4 C,2 E,2 | G,4 A,4 | z2 G,4 G,2 | F,2 F,2 E,2 E,2 | C,4 A,,4 | E,4 A,,2 A,2 | F,4 C,2 C,2 | %237
w: rum. Et ex-|pec- to|re- sur-|rec- ti- o- nem|mor- tu-|o- rum. Et|vi- tam ven-|
 F,2 E,2 F,2 G,2 | C,2 G,2 (C,D,E,F,) | G,4 z4 | z4 z2 B,,2 | C,2 D,2 E,3 D, | C,4 (F,4 | G,8- | %244
w: tu- ri sae- cu-|li, et vi­ * * *|tam|ven-|tu- ri sae- cu-|li. A­||
 G,8) | C,8 |][M:4/4] z8 | z8 | (C,3 D, E,2 G,2 | F,2 E,2 D,4 | C,4) G,4 | C,4 D,4 | %252
w: |men.|||San­ * * *||* ctus,|san­ *|
 E,3 D, C,2 B,,2 | C,8 | G,8 | z2 C,3 C, C,2 | F,2 F,2 F,3 E, | D,8 | z2 G,4 G,2 | A,2 F,3 E, D,2 | %260
w: ||ctus|Do- mi- nus|De- us Sa- ba-|oth.|Ple- ni|sunt coe- li et|
 E,4 C,4 | z2 D,3 D, G,2 | C,4 G,2 G,2 | A,2 A,2 A,2 A,2 | F,4 D,2 D,2 | G,2 G,2 G,2 G,2 | %266
w: ter- ra|glo- ri- a|tu- a. Ho-|san- na in ex-|cel- sis, ho-|san- na in ex-|
 E,4 C,2 C,2 | F,2 F,2 F,2 F,2 | (C,8 | G,8- | G,8) | C,8 || C,4 D,4 | E,4 F,2 D,2 | (G,3 F,) E,4 | %275
w: cel- sis, ho-|san- na in ex-|cel­|||sis.|Be- ne-|dic- tus qui|ve­ * nit,|
 z4 z2 C2 | (A,2 B,2) C2 C,2 | F,3 F, E,4 | D,2 G,2 C,2 C,2 | G,4 G,2 G,2 | A,2 A,2 A,2 A,2 | %281
w: qui|ve­ * nit in|no- mi- ne|Do- mi- ni. Ho-|san- na Ho-|san- na in ex-|
 F,4 D,2 D,2 | G,2 G,2 G,2 G,2 | E,4 C,2 C,2 | F,2 F,2 F,2 F,2 | (C,8 | G,8- | G,8) | C,8 |] C,8 | %290
w: cel- sis, ho-|san- na in ex-|cel- sis, ho-|san- na in ex-|cel­|||sis.|A-|
 C8 | A,8 | G,8 | z2 C,2 D,4 | E,2 G,2 G,2 F,2 | (G,2 E,2 D,4) | C,4 z4 | z2 C,2 G,4 | %298
w: gnus|De-|i,|qui tol-|lis pec- ca- ta|mun­ * *|di,|qui tol-|
 A,2 F,2 F,2 E,2 | F,4 C,4 | z8 | z8 | z4 z2 C,2- | C,2 C,2 A,,4 | F,2 F,4 F,2 | D,4 B,,4 | C,8 | %307
w: lis pec- ca- ta|mun- di,|||mi­|* se- re-|re, mi- se-|re- re|no-|
 G,,8 || C,8 | C8 | A,8 | G,8 | z2 C,2 D,4 | E,2 G,2 G,2 F,2 | (G,2 E,2 D,4) | C,4 z4 | %316
w: bis.|A-|gnus|De-|i,|qui tol-|lis pec- ca- ta|mun­ * *|di,|
 z2 C,2 G,4 | A,2 F,2 F,2 E,2 | F,4 C,4 | z8 | z8 | z4 z2 C,2- | C,2 C,2 A,,4 | F,2 F,4 F,2 | %324
w: qui tol-|lis pec- ca- ta|mun- di,|||mi­|* se- re-|re, mi- se-|
 D,4 B,,4 | C,8 || G,,4 G,4- | G,4 E,4 |[M:4/4] G,8 | C,8 | z8 | z8 | z2 G,4 G,2 | A,2 A,2 (^F,4 | %334
w: re- re|no-|bis. A­|* gnus|De-|i,|||do- na|no- bis pa­|
 G,4) E,4 | z8 | z2 C,4 C,2 | D,4 B,,4 | (C,3 B,, A,,4- | A,,4 ^G,,4 | A,,8) | E,8 |] %342
w: * cem,||do- na|no- bis|pa­ * *|||cem.|

